X: 45
T: the TWENTY-NINTH OF MAY
B: FIFTY OLD ENGLISH FOLK DANCE AIRS", Edgar H. Hunt ed., Schott & Co. Ltd. pub., London 1939
Z: 2004-2014 John Chambers <jc:trillian.mit.edu>
M: 2/2
L: 1/8
K: D
|:\
a2f2 g2f2 | (ed)cB A2f2 |\
g2B2 (c3B/c/) | d2A2 F2(ED) :|\
(F2 A4) (GF) | (G2 B4) B2 |
(cd)e2 (cd)e2 | (c2Bc) A2(de) |\
(f2ef) d2(ef) | (g2fg) e2(fg) |\
a2B2 (c3B/c/) | d2A2 F2(ED) |]

%%sep 1 1 500
%%sep 1 1 500
